!!!!SEGMENT: pl-kk--kk-i-367--002_pitoni-giuseppe-ottavio--miserere-mei-deus.krn
!!!cenid: 17xx:1968
!!!COM: Pitoni, Giuseppe Ottavio
!!!COM-rismid: pe20503
!!!CDT: 1657/03/18-1743/02/01
!!!CNT: Italian
!!!OTL: Miserere Mei Deus
!!!PDT:
!!!AGN: Sacred
!!!SMS-siglum: PL-Kk
!!!SMS-shelfmark: Kk.I.367
!!!SMS-shelfwork: 002 W
!!!SMS-variant:
!!!SMS-altvar:
!!!NIFC-rismid: 1001142952
!!!URL-scan: http://repozytorium.nifc.pl/skany/pl-kk-nut--i-367
!!!ONB-nifc: UWAGA: utwory w zbiorze: 1. Christus factus est pro nobis, 2. Miserere Mei Deus (wieloodcinkowy)
!!!AIN: 1 empty 2 tenor
!!!key:
**kern	**text	**dynam	**kern	**text	**dynam	**kern	**text	**dynam
*part3	*part3	*part3	*part2	*part2	*part2	*part1	*part1	*part1
*staff3	*staff3	*	*staff2	*staff2	*	*staff1	*staff1	*
*Iempty	*	*	*Itenor	*	*	*Itenor	*	*
*I"Baſso.	*	*	*I"Tenore 2ndo	*	*	*I"Tenore Primo.	*	*
*I'B	*	*	*I'T 2	*	*	*I'T 1	*	*
*clefF4	*	*	*clefC4	*	*	*clefC4	*	*
*k[]	*	*	*k[]	*	*	*k[]	*	*
*d:	*	*	*d:	*	*	*d:	*	*
*M3/2	*	*	*M3/2	*	*	*M3/2	*	*
*	*	*	*	*	*	*	*	*below
=1	=1	=1	=1	=1	=1	=1	=1	=1
*2\right	*	*	*2\right	*	*	*2\right	*	*
!	!	!	!	!	!	!LO:TX:t=P:f = "fort:":global:problem	!	!
!	!	!	!	!	!	!LO:TX:t=P:p = "pia:":global:problem	!	!
2.A\	Mi-	.	2.c#X\	Mi-	.	2.e\	Mi-	.
4A\	-se-	.	4c#\	-se-	.	4e\	-se-	.
2A\	-re-	.	2c#\	-re-	.	2e\	-re-	.
=2	=2	=2	=2	=2	=2	=2	=2	=2
2F\	-re	.	2d,<\	-re,	.	2f\	-re	.
2G\	me-	.	2d\	me-	.	2e\	me-	.
2A\	-i	.	2c#X\	-i	.	2e\	-i	.
=3	=3	=3	=3	=3	=3	=3	=3	=3
1D\	De-	.	1d\	De-	.	1f\	De-	.
2D/	-us	.	2d\	-us	.	2f\	-us	.
=4	=4	=4	=4	=4	=4	=4	=4	=4
2r	.	.	2r	.	.	2r	.	.
2D\	et se-	.	2A\	se-	.	2d\	se-	f
2D\	-cun-	.	2A\	-cun-	.	2d\	-cun-	.
!	!	!	!	!	!	!LO:LB:g=original	!	!
=5	=5	=5	=5	=5	=5	=5	=5	=5
2C/	-dum	.	2c\	-dum	.	2e\	-du(m)	.
1c\	ma-	.	1c\	ma-	.	1e\	ma-	.
=6	=6	=6	=6	=6	=6	=6	=6	=6
2c\	-gnam	.	2c\	-gnam	.	2e\	-gna(m)	.
2A\	mi-	.	2c\	mi-	.	2f\	mi-	p
4B\	-se-	.	4d\	-se-	.	4f\	-se-	.
4A\	-ri-	.	4c\	-ri-	.	4f\	-ri-	.
=7	=7	=7	=7	=7	=7	=7	=7	=7
!LO:SIC:s:v=B-	!	!	!	!	!	!	!	!
2B\	-cor-	.	2B-X\	-cor-	.	2d\	-cor-	.
2F\	-di-	.	2A\	-di-	.	2d\	-di-	.
2G\	-am	.	2B-X\	-am	.	2d\	-am	.
!LO:LB:g=original	!	!	!LO:LB:g=original	!	!	!	!	!
=8	=8	=8	=8	=8	=8	=8	=8	=8
2A\	tu-	.	2A\	tu-	.	2c#X\	tu-	.
2B\	.	.	2d\	.	.	1d\	.	.
2G\	.	.	2B-X\	.	.	.	.	.
=9	=9	=9	=9	=9	=9	=9	=9	=9
1.A\	.	.	1.A\	-am.	.	1d\	.	.
.	.	.	.	.	.	2c#X\	.	.
=10	=10	=10	=10	=10	=10	=10	=10	=10
!LO:TX:a:t=Et secundum\nil choro	!	!	!LO:TX:a:t=Et Secundum\nil choro resperu&colon;	!	!	!LO:TX:a:t=Et Secundum il Coro	!	!
00D;\	-am	.	00A;\	.	.	00d;\	-am	.
!	!	!LO:DY:t=Piano	!	!	!	!	!	!
.	.	p	.	.	.	.	.	.
!	!	!	!	!	!	!LO:LB:g=original	!	!
=11||	=11||	=11||	=11||	=11||	=11||	=11||	=11||	=11||
*M3/2	*	*	*M3/2	*	*	*M3/2	*	*
2.A\	Am-	.	2.e\	Am-	.	2.c#X\	Am-	.
4A\	-li-	.	4e\	-pli-	.	4c#\	-pli-	.
2A\	-us	.	2e\	-us	.	2c#\	-us	.
=12	=12	=12	=12	=12	=12	=12	=12	=12
2F\	la-	.	2f\	la-	.	2d\	la-	.
2G\	.	.	1e\	-va	.	2d\	-va	.
2A\	-va	.	.	.	.	2c#X\	.	.
=13	=13	=13	=13	=13	=13	=13	=13	=13
1.D\	me	.	1.d\	me	.	1d\	me	.
.	.	.	.	.	.	2r	.	.
!LO:LB:g=original	!	!	!	!	!	!	!	!
=14	=14	=14	=14	=14	=14	=14	=14	=14
2r	.	.	2r	.	.	2r	.	.
2C/	ab	.	2c\	ab	.	2e\	ab	f
*	*	*	*custos:c	*	*	*	*	*
2c\	i-	.	2c\	i-	.	2e\	i-	.
!	!	!	!LO:LB:g=original	!	!	!	!	!
=15	=15	=15	=15	=15	=15	=15	=15	=15
2A\	-ni-	.	2c\	-ni-	.	2f\	-ni-	.
2B-X\	-qui-	.	2d\	-qui-	.	2d\	-qui-	.
2F\	-ta-	.	2c\	-ta-	.	2f\	-ta-	.
=16	=16	=16	=16	=16	=16	=16	=16	=16
2c\	-te	.	2c\	-te	.	2e\	-te	.
1c\	me-	.	1c\	me-	.	1e\	me-	.
=17	=17	=17	=17	=17	=17	=17	=17	=17
2c\	.	.	2c\	.	.	2e\	.	.
1c\	a	.	1c\	-a	.	1e\	-a	.
=18	=18	=18	=18	=18	=18	=18	=18	=18
2r	.	.	2r	.	.	2r	.	.
2A\	et	.	2e\	et	.	2c#X\	et	.
8A\	à	.	8e\	a	.	8c#\	a	.
8A\	pec-	.	8e\	pec-	.	8c#\	pec-	.
8A\	-ca-	.	8d\	-ca-	.	8B\	-ca-	.
8A\	-to	.	8c#X\	-to	.	8A\	-to	.
!	!	!	!	!	!	!LO:PB:g=original	!	!
=19	=19	=19	=19	=19	=19	=19	=19	=19
1.F\	me-	.	1.f\	me-	.	1.d\	me-	.
=20	=20	=20	=20	=20	=20	=20	=20	=20
2F\	-o	.	2f\	-o	.	1d\	-o	.
2B\	mun-	.	2d\	mun-	.	.	.	.
2A\	.	.	2e\	.	.	2c#X\	mun-	.
=21	=21	=21	=21	=21	=21	=21	=21	=21
!	!	!	!	!	!	!LO:SIC:s:v=c# ?	!	!
1A\	.	.	1e\	.	.	1c\	-da	.
2A\	-da	.	2e\	-da	.	2c#X\	.	.
=22	=22	=22	=22	=22	=22	=22	=22	=22
00D;\	me	.	00d;\	me	.	00d;\	me	.
!LO:LB:g=original	!	!	!LO:LB:g=original	!	!	!	!	!
=23||	=23||	=23||	=23||	=23||	=23||	=23||	=23||	=23||
*M3/2	*	*	*M3/2	*	*	*M3/2	*	*
2.A\	Ti-	.	2.e\	Ti-	.	2.c#X\	Ti-	.
4A\	-bi	.	4e\	-bi	.	4c#\	-bi	.
2B-X\	so-	.	2d\	so-	.	2d\	so-	.
=24	=24	=24	=24	=24	=24	=24	=24	=24
2B\	.	.	2d\	-li	.	2d\	.	.
2.A\	-li	.	2.A\	pec-	.	2.c#X,<\	-li	.
4F#X\	pec-	.	4A\	.	.	4d\	pec-	.
=25	=25	=25	=25	=25	=25	=25	=25	=25
2G\	-ca-	.	2B-X\	-ca-	.	2d\	-ca-	.
!	!	!LO:DY:a:t=for&colon;	!	!	!	!	!	!LO:DY:t=for&colon;
1A\	.	f	1A\	.	.	1c#X\	.	f
=26	=26	=26	=26	=26	=26	=26	=26	=26
!	!	!LO:DY:a	!	!	!	!	!	!
1D\	-vi	p	1A\	-vi	.	1d\	-vi	p
2r	.	.	2r	.	.	2r	.	.
!	!	!	!	!	!	!LO:LB:g=original	!	!
=27	=27	=27	=27	=27	=27	=27	=27	=27
2.A\	et	.	2.e\	et	.	2.c#X\	et	.
4A\	ma-	.	4e\	ma-	.	4c#\	ma-	.
2A\	-lum-	.	2e\	-lum	.	2c#\	-lum	.
=28	=28	=28	=28	=28	=28	=28	=28	=28
2F\	-co-	.	2f\	co-	.	2d\	co-	.
2G\	-ram	.	2e\	-ra(m)	.	2d\	-ram	.
2A\	Te	.	2e\	te	.	2c#X\	te	.
=29	=29	=29	=29	=29	=29	=29	=29	=29
1D\	fe-	.	1d\	fe-	.	1d\	fe-	.
2D\	-ci	.	2d\	-ci	.	2d\	-ci	.
=30	=30	=30	=30	=30	=30	=30	=30	=30
2r	.	.	2r	.	.	2r	.	.
1G\	ut	.	1B\	ut	.	1d\	ut	.
!LO:LB:g=original	!	!	!	!	!	!	!	!
=31	=31	=31	=31	=31	=31	=31	=31	=31
2C/	ju-	.	2c\	ju-	.	2e\	ju-	.
2F\	-sti-	.	2A\	-sti-	.	2c\	-sti-	.
2E\	-fi-	.	2c\	-fi-	.	2c\	-fi-	.
!	!	!	!LO:LB:g=original	!	!	!	!	!
=32	=32	=32	=32	=32	=32	=32	=32	=32
1F\	-ce-	.	1A\	-ce-	.	1c\	-ce-	.
2C/	-ris	.	2c\	-ris	.	2e\	-ris	.
=33	=33	=33	=33	=33	=33	=33	=33	=33
4c\	in	.	4c\	in	.	4e\	in	.
4c\	ser-	.	4c\	ser-	.	4e\	ser-	.
2c\	-mi-	.	2c\	-mo-	.	2e\	-mo-	.
4A\	-ni-	.	4c\	-ni-	.	4f\	-ni-	.
4A\	-bus	.	4c\	-bus,	.	4f\	-b(us)	.
=34	=34	=34	=34	=34	=34	=34	=34	=34
1B-X\	tu-	.	1d\	tu-	.	2d\	tu-	.
.	.	.	.	.	.	2d\	-is	p
2F\	-is	.	2c\	-is	.	2f\	et	.
!	!	!	!	!	!	!LO:LB:g=original	!	!
=35	=35	=35	=35	=35	=35	=35	=35	=35
2G\	et	.	2B\	et	.	2d\	vin-	.
2E\	vin-	.	2c\	vin-	.	2e\	.	.
2G\	.	.	2B\	.	.	2d\	.	.
=36	=36	=36	=36	=36	=36	=36	=36	=36
2C/	.	.	2G/	.	.	2c\	cas	.
2F\	-cas	.	2A/	-cas	.	2c\	.	.
2r	.	.	2r	.	.	2r	.	.
=37	=37	=37	=37	=37	=37	=37	=37	=37
2A\	cum	.	2A\	cum	.	2c#X\	cum	.
2B-X\	ju-	.	2d\	ju-	.	2d\	ju-	.
2G\	-di-	.	2B-X\	-di-	.	2d\	-di-	.
=38	=38	=38	=38	=38	=38	=38	=38	=38
1.A\	-ca-	.	1.A\	-ca-	.	1d\	-ca-	.
.	.	.	.	.	.	2c#X\	.	.
=39	=39	=39	=39	=39	=39	=39	=39	=39
00D;\	-ris	.	00A;\	-ris.	.	00d;\	-ris	.
!LO:LB:g=original	!	!	!LO:LB:g=original	!	!	!	!	!
=40||	=40||	=40||	=40||	=40||	=40||	=40||	=40||	=40||
*M3/2	*	*	*M3/2	*	*	*M3/2	*	*
2.A\	Ec-	.	2.e\	Ec-	.	2.c#X\	Ec-	.
4A\	-ce	.	4e\	-ce	.	4c#\	-ce	.
2A\	e-	.	2e\	e-	.	2c#\	e-	.
=41	=41	=41	=41	=41	=41	=41	=41	=41
2F,<\	-nim	.	2f,<\	-nim	.	2d\	-nim	.
2G\	ve-	.	2e\	ve-	.	2d\	ve-	.
2A\	-ri-	.	2e\	-ri-	.	2c#X\	-ri-	.
!	!	!	!	!	!	!LO:LB:g=original	!	!
=42	=42	=42	=42	=42	=42	=42	=42	=42
1D\	-ta-	.	1d\	-ta-	.	1d\	-ta-	.
2D\	-tem	.	2A\	-tem,	.	2d\	-tem	.
=43	=43	=43	=43	=43	=43	=43	=43	=43
2A\	di-	.	2A\	di-	.	2c\	di-	.
1G\	-le-	.	1Bn\	-le-	.	1d\	-le-	.
=44	=44	=44	=44	=44	=44	=44	=44	=44
1.C/	-xi-	.	1.c\	-xi-	.	1.e\	-xi-	.
=45	=45	=45	=45	=45	=45	=45	=45	=45
2C/	.	.	2c\	.	.	2e\	.	.
!	!	!LO:DY:a:t=forte	!	!	!	!	!	!
2.F,<\	-sti	f	2.A,<\	-sti	.	2c\	-sti	.
.	.	.	.	.	.	4ryy	.	.
4F\	in-	.	4c\	in-	.	8r	.	.
.	.	.	.	.	.	8f\	in-	f
=46	=46	=46	=46	=46	=46	=46	=46	=46
4.c\	-cer-	.	4.c\	-cer-	.	4.e\	-cer-	.
!	!	!LO:DY:a:t=piano	!	!	!	!	!	!
8F\	-ta	p	8c\	-ta	.	8f\	-ta	.
4c\	et	.	4c\	et	.	4e\	et	p
4d\	oc-	.	4B\	oc-	.	4d\	oc-	.
2c\	-cul-	.	2c\	-cul-	.	2e\	-cul-	.
=47	=47	=47	=47	=47	=47	=47	=47	=47
4c\	-ta	.	4c\	-ta	.	4e,<\	-ta	.
!	!	!	!	!	!	!	!	!LO:DY:t=for&colon;
8F\	Sa-	.	8c\	Sa-	.	8f\	Sa-	f
8F\	-pi-	.	8c\	-pi-	.	8f\	-pi-	.
!LO:LB:g=original	!	!	!LO:LB:g=original	!	!	!	!	!
2.B-X\	-en-	.	2d\	-en-	.	2d\	-en-	.
.	.	.	4d\	-ti-	.	4d\	-ti-	.
8Bn\	-ti-	.	4c\	-ae	.	4e\	-ae,	.
8c\	-ae	.	.	.	.	.	.	.
=48	=48	=48	=48	=48	=48	=48	=48	=48
2c\	tu-	.	2c\	tu-	.	2e\	tu-	.
2c\	-ae	.	2c\	-ae	.	2e\	-ae	.
2A\	ma-	.	2c#X\	ma-	.	2e\	ma-	.
=49	=49	=49	=49	=49	=49	=49	=49	=49
2D\	-ni-	.	2d\	-ni	.	2f\	-ni-	.
2A\	-fe-	.	2c#X\	fe-	.	2e\	-fes-	.
2B-X\	-sta-	.	2d\	-sta-	.	2d\	-ta-	.
!	!	!	!	!	!	!LO:LB:g=original	!	!
=50	=50	=50	=50	=50	=50	=50	=50	=50
2G\	-sti	.	2B-X\	-sti	.	2d\	-sti	.
1A\	mi-	.	1A\	mi-	.	2d\	mi-	.
.	.	.	.	.	.	2c#X\	.	.
=51	=51	=51	=51	=51	=51	=51	=51	=51
00D;\	-hi.	.	00A;\	-hi	.	00d;\	-hi	.
=52||	=52||	=52||	=52||	=52||	=52||	=52||	=52||	=52||
*M3/2	*	*	*M3/2	*	*	*M3/2	*	*
!LO:TX:a:t=x	!	!	!	!	!	!	!	!
2r	.	.	2r	.	.	2r	.	.
2r	.	.	2r	.	.	2r	.	.
2D\	au-	.	2f\	Au-	.	2d\	Au-	.
=53	=53	=53	=53	=53	=53	=53	=53	=53
2.A\	-di-	.	2.e\	-di-	.	2.c#X\	-di-	.
4A\	-tu-	.	4e\	-tu-	.	4c#\	-tu-	.
2B\	-i	.	2d\	-i	.	2d\	-i	.
=54	=54	=54	=54	=54	=54	=54	=54	=54
1A\	me-	.	1e\	me-	.	1c#X\	me-	.
2A\	-o	.	2e\	-o	.	2c#\	-o	.
!	!	!	!LO:LB:g=original	!	!	!	!	!
=55	=55	=55	=55	=55	=55	=55	=55	=55
2r	.	.	2r	.	.	2r	.	.
2d\	da-	.	2f\	da-	.	2d\	da-	.
2D\	-bis	.	2d\	-bis	.	2A\	-bis	.
!LO:LB:g=original	!	!	!	!	!	!	!	!
=56	=56	=56	=56	=56	=56	=56	=56	=56
2r	.	.	2r	.	.	2r	.	.
*	*ij	*	*	*	*	*	*ij	*
2B-X\	da-	.	2d\	da-	.	2d\	da-	.
2B-\	-bis	.	2d\	-bic	.	2d\	-bis	.
*	*Xij	*	*	*	*	*	*Xij	*
=57	=57	=57	=57	=57	=57	=57	=57	=57
2.B\	gau-	.	2.e\	gau-	.	2.c\	gau-	.
4B\	-di-	.	4e\	-di-	.	4c\	-di-	.
2A\	-um	.	2f\	-um	.	2c\	-um	.
=58	=58	=58	=58	=58	=58	=58	=58	=58
1G\	et	.	1f\	et	.	1d\	et	.
2C/	lae-	.	2e\	lae-	.	2c\	lae-	.
!	!	!	!	!	!	!LO:LB:g=original	!	!
=59	=59	=59	=59	=59	=59	=59	=59	=59
2.F\	-ti-	.	2.f\	-ti-	.	2.c\	-ti-	.
4F\	-ti-	.	4f\	-ti-	.	4c\	-ti-	.
2F\	-am	.	2f\	-am	.	2c\	-am	.
=60	=60	=60	=60	=60	=60	=60	=60	=60
2c\	et	.	2e\	et	.	2e\	et	.
4B\	ex-	.	2B\	ex-	.	(4d\	ex-	.
4A\	-cul-	.	.	.	.	4c\)	.	.
4B\	.	.	2B\	-ul-	.	(4d\	-ul-	.
4G\	.	.	.	.	.	4B\)	.	.
=61	=61	=61	=61	=61	=61	=61	=61	=61
2c\	-ta-	.	2c\	-ta-	.	2e\	-ta-	.
2G\	-bunt	.	2B\	-bunt	.	2d\	-bunt	.
2c\	oſ-	.	1c\	of-	.	2e\	oſ-	.
=62	=62	=62	=62-	=62-	=62-	=62	=62	=62
2A\	-sa	.	.	.	.	2f\	-sa	.
2F\	.	.	2A\	-sa	.	2f\	.	.
2B-X\	hu-	.	2B-X\	hu-	.	2d\	hu-	.
!	!	!	!LO:PB:g=original	!	!	!	!	!
=63	=63	=63	=63	=63	=63	=63	=63	=63
!	!	!	!LO:SIC:s:v=B-	!	!	!	!	!
1.G\	-mi-	.	1.B\	-mi-	.	2e\	-mi-	.
.	.	.	.	.	.	2d\	.	.
.	.	.	.	.	.	2e\	.	.
!LO:LB:g=original	!	!	!	!	!	!	!	!
=64	=64	=64	=64	=64	=64	=64	=64	=64
2G\	.	.	1A\	-li-	.	2c#X\	-li-	.
2F\	.	.	.	.	.	0d\	-a-	.
2G\	-li-	.	2B-X\	-a-	.	.	.	.
=	=	=	=	=	=	=-	=-	=-
!	!	!	!LO:TX:t=P:problem=kreska taktowa	!	!	!	!	!
1.A\	-a-	.	1.A\	.	.	.	.	.
.	.	.	.	.	.	2c#X\	.	.
=65	=65	=65	=65	=65	=65	=65	=65	=65
00D\	-ta.	.	00A;\	-ta	.	00d;\	-ta	.
!	!	!	!	!	!	!LO:PB:g=original	!	!
=66||	=66||	=66||	=66||	=66||	=66||	=66||	=66||	=66||
*M3/2	*	*	*M3/2	*	*	*M3/2	*	*
2D\	Cor	.	2f\	Cor	.	2d\	Cor	.
2.A\	mun-	.	2.e\	mun-	.	2.c#X\	mun-	.
4A\	-du(m)	.	4e\	-du(m),	.	4c#\	-du(m)	.
=67	=67	=67	=67	=67	=67	=67	=67	=67
!	!	!	!	!	!	!LO:SIC:s:v=c#	!	!
2A\	cre-	.	2e\	cre-	.	2c\	cre-	.
2F\	-a	.	2f,<\	-a,	.	2d\	-a	.
2G\	in	.	2e\	in	.	2d\	in	.
=68	=68	=68	=68	=68	=68	=68	=68	=68
2A\	me	.	2e\	me	.	2c#X\	me	.
1D\	De-	.	1d\	De-	.	1d\	De-	.
=69	=69	=69	=69	=69	=69	=69	=69	=69
2D\	-us,	.	2.A\	-us	.	2.d\	-us	.
4r	.	.	.	.	.	.	.	.
4A\	et	.	4A\	et	.	4c#X\	et	.
4D/	Spi-	.	4A\	Spi-	.	4d\	Spi-	.
4D/	-ri-	.	4A\	-ri-	.	4d\	-ri-	.
!	!	!	!LO:LB:g=original	!	!	!	!	!
=70	=70	=70	=70	=70	=70	=70	=70	=70
2C/	-tum	.	2c\	-tu(m)	.	2e,<\	-tum,	.
2F\	re-	.	2c\	re-	.	2f\	rec-	.
2F\	-ctum	.	2c\	-ctum	.	2f\	-tu(m)	.
!LO:LB:g=original	!	!	!	!	!	!	!	!
=71	=71	=71	=71	=71	=71	=71	=71	=71
2.c\	in-	.	2.c\	in	.	2.e\	in-	.
4c\	-no-	.	4c\	no-	.	4e\	-no-	.
2c\	-va	.	2c\	-va	.	2e\	-va	.
=72	=72	=72	=72	=72	=72	=72	=72	=72
2G\	in	.	1B-X\	in	.	2d\	in	.
2A\	vi-	.	.	.	.	2c#X\	vis-	.
2B-X\	-sce-	.	2B-\	vi-	.	2d\	-ce-	.
!	!	!	!	!	!	!LO:LB:g=original	!	!
=73	=73	=73	=73	=73	=73	=73	=73	=73
!LO:SIC:s:v=B-	!	!	!	!	!	!	!	!
4B\	-ri-	.	2.B-X\	-sce-	.	4d\	.	.
!LO:SIC:s:v=B-	!	!	!	!	!	!	!	!
4B\	-bus	.	.	.	.	4d\	-ri-	.
1G\	.	.	.	.	.	1d\	-bus	.
.	.	.	4B-\	-ri-	.	.	.	.
.	.	.	2B-\	-bus	.	.	.	.
=74	=74	=74	=74	=74	=74	=74	=74	=74
1.A\	me-	.	1.A\	me-	.	1d\	me-	.
.	.	.	.	.	.	2c#X\	.	.
=75	=75	=75	=75	=75	=75	=75	=75	=75
00D;\	-is.	.	00A;\	-is.	.	00d;\	-is	.
!LO:PB:g=original	!	!	!LO:LB:g=original	!	!	!	!	!
=76||	=76||	=76||	=76||	=76||	=76||	=76||	=76||	=76||
*M3/2	*	*	*M3/2	*	*	*M3/2	*	*
2r	.	.	2r	.	.	2r	.	.
2r	.	.	2r	.	.	2r	.	.
4d\	Red-	.	4f\	Red-	.	4d\	Red-	.
4c#X\	-de	.	4e\	-de	.	4e\	-de	.
=77	=77	=77	=77	=77	=77	=77	=77	=77
2d\	mi-	.	2d\	mi-	.	2f\	mi-	.
2B-X\	-hi	.	2f\	-hi	.	2d\	-hi	.
2c\	lae-	.	2e\	lae-	.	2c\	lae-	.
=78	=78	=78	=78	=78	=78	=78	=78	=78
2.F\	-ti-	.	2.f\	-ti-	.	2.c\	-ti-	.
4F\	-ti-	.	4f\	-ti-	.	4c\	-ti-	.
2F\	-am	.	2f\	-am	.	2c\	-am	.
=79	=79	=79	=79	=79	=79	=79	=79	=79
2.B-X\	sa-	.	2.f\	sa-	.	2.d\	sa-	.
4B-\	-lu-	.	4f\	-lu-	.	4d\	-lu-	.
2B-\	-ta-	.	2f\	-ta-	.	2d\	-ta-	.
=80	=80	=80	=80	=80	=80	=80	=80	=80
2G\	-ris	.	2e\	-ris	.	2e\	-ris	.
2A\	tu-	.	2c#X\	tu-	.	2e\	tu-	.
2A\	-i	.	2c#\	-i	.	2e\	-i	.
=81	=81	=81	=81	=81	=81	=81	=81	=81
2D\	et	.	2d\	et	.	2f\	et	.
2.G\	Spi-	.	2.d\	spi-	.	2.B-X\	spi-	.
4G\	-ri-	.	4d\	-ri-	.	4B-\	-ri-	.
!	!	!	!	!	!	!LO:LB:g=original	!	!
=82	=82	=82	=82	=82	=82	=82	=82	=82
!	!	!	!	!	!	!LO:TX:a:t=vi	!	!
2F\	-tu	.	2f\	-tu	.	2A,\	-tu	.
!	!	!	!	!	!	!LO:TX:a:t=de	!	!
!	!	!	!	!	!	!LO:TX:t=P:problem=skan 0003	!	!
2B-X\	prin-	.	2d\	prin-	.	2d\	prin-	.
2c\	-ci-	.	2c\	-ci-	.	2e\	-ci-	.
!LO:LB:g=original	!	!	!LO:LB:g=original	!	!	!	!	!
=83	=83	=83	=83	=83	=83	=83	=83	=83
1F\	-pa-	.	1A\	-pa-	.	1c\	-pa-	.
2F\	-li	.	2A/	-li	.	2c\	-li	.
=84	=84	=84	=84	=84	=84	=84	=84	=84
2F\	con-	.	1.F/	con-	.	2A\	con-	.
2A\	-fir-	.	.	.	.	2c\	-fir-	.
2B-X\	-ma-	.	.	.	.	2d\	-ma	.
=85	=85	=85	=85	=85	=85	=85	=85	=85
4A\	-me	.	1.F/	-fir-	.	4c\	me	.
*	*ij	*	*	*	*	*	*	*
4G\	con-	.	.	.	.	4B-X\	.	.
*	*	*	*	*	*	*	*ij	*
2A\	-fir-	.	.	.	.	2c\	con-	.
2B-X\	-ma	.	.	.	.	2d\	-fir-	.
=86	=86	=86	=86	=86	=86	=86	=86	=86
4A\	me	.	1.F/	-ma	.	4c\	-ma	.
4G\	con-	.	.	.	.	4B-X\	me	.
2A\	-fir-	.	.	.	.	2c\	con-	.
2B\	-ma	.	.	.	.	2d\	-fir-	.
=87	=87	=87	=87	=87	=87	=87	=87	=87
4A\	me	.	1.F/	me	.	4c\	-ma	.
4G\	con-	.	.	.	.	4B-X\	me	.
1F\	-fir	.	.	.	.	1A\	.	.
*	*Xij	*	*	*	*	*	*Xij	*
=88	=88	=88	=88	=88	=88	=88	=88	=88
1.c\	con-	.	2E/	con-	.	2c\	con-	.
.	.	.	2G/	-fir-	.	2e\	-fir-	.
.	.	.	2A/	-ma	.	2f\	-ma	.
=89	=89	=89	=89	=89	=89	=89	=89	=89
1.c\	-fir-	.	4G/	me	.	4e\	me	.
*	*	*	*	*ij	*	*	*ij	*
.	.	.	4F/	con-	.	4d\	con-	.
.	.	.	2G/	-fir-	.	2e\	-fir-	.
!	!	!	!	!	!	!LO:TX:a:t=re	!	!
.	.	.	2A/	-ma	.	2f\	-ma	.
*	*	*	*	*	*	*	*Xij	*
=90	=90	=90	=90	=90	=90	=90	=90	=90
!	!	!	!	!	!	!LO:TX:a:t=tro	!	!
1.c\	-ma	.	4G/	me	.	4e\	con-	.
.	.	.	4F/	con-	.	4d\	-fir-	.
.	.	.	2G/	-fir-	.	2e\	-ma	.
.	.	.	2A/	-ma	.	2f\	me	.
=91	=91	=91	=91	=91	=91	=91	=91	=91
*	*	*	*	*	*	*	*ij	*
1.c\	me	.	4G/	me	.	4e\	con-	.
.	.	.	4F/	con-	.	4d\	-fir-	.
!	!	!	!LO:N:vis=2	!	!	!	!	!
.	.	.	1E/	-fir	.	1c\	-ma	.
*	*	*	*	*Xij	*	*	*	*
!LO:LB:g=original	!	!	!	!	!	!	!	!
=92	=92	=92	=92	=92	=92	=92	=92	=92
2F\	con-	.	2A\	con-	.	2c,\	me	.
*	*	*	*	*	*	*	*Xij	*
1B-X\	fir-	.	1B-X\	-fir-	.	1d\	con-	.
!	!	!	!LO:LB:g=original	!	!	!	!	!
=93	=93	=93	=93	=93	=93	=93	=93	=93
!	!	!	!LO:SIC:s:v=B-	!	!	!	!	!
2G\	.	.	2B\	.	.	1d\	-fir-	.
2.A\	-ma,	.	2.A\	-ma	.	.	.	.
.	.	.	.	.	.	2c#X\	-ma	.
4A\	.	.	4A\	.	.	.	.	.
=94	=94	=94	=94	=94	=94	=94	=94	=94
00D;\	me	.	00A;\	me	.	00d;\	me	.
=95||	=95||	=95||	=95||	=95||	=95||	=95||	=95||	=95||
*M3/2	*	*	*M3/2	*	*	*M3/2	*	*
2r	.	.	2r	.	.	2r	.	.
2r	.	.	2r	.	.	2r	.	.
2A\	Li-	.	2e\	Li-	.	2c#X\	Li-	.
=96	=96	=96	=96	=96	=96	=96	=96	=96
!	!	!	!	!	!	!LO:SIC:s:v=c#	!	!
4A\	-be-	.	4e\	-be-	.	4c\	-be-	.
!	!	!	!	!	!	!LO:SIC:s:v=c#	!	!
4A\	-ra	.	4e\	-ra	.	4c\	-ra	.
1G#X\	me	.	1B\	me	.	1e\	me	.
=97	=97	=97	=97	=97	=97	=97	=97	=97
2r	.	.	2r	.	.	2r	.	.
2A\	de	.	2A\	de	.	2c#X\	de	.
2d\	san-	.	2A\	san-	.	2d\	san-	.
!	!	!	!	!	!	!LO:LB:g=original	!	!
=98	=98	=98	=98	=98	=98	=98	=98	=98
2.c\	-gui-	.	2.c\	-qui-	.	2.e\	-gui-	.
4c\	-ni-	.	4c\	-ni-	.	4e\	-ni-	.
2A\	-bus	.	2c\	-bus	.	2f\	-bus	.
=99	=99	=99	=99	=99	=99	=99	=99	=99
2A\	De-	.	2A\	De-	.	2c\	De-	.
1G\	.	.	1B-X\	.	.	1e\	.	.
=100	=100	=100	=100	=100	=100	=100	=100	=100
1.F\	-us	.	1.A\	-us	.	1.f\	-us	.
!LO:LB:g=original	!	!	!	!	!	!	!	!
=101	=101	=101	=101	=101	=101	=101	=101	=101
2r	.	.	2r	.	.	2r	.	.
2F\	De-	.	2A\	De-	.	2d\	De-	.
4G\	-us	.	4B-X/	-us	.	4d\	-us	.
4B-X\	Sa-	.	4A/	sa-	.	4d\	Sa-	.
!	!	!	!LO:LB:g=original	!	!	!	!	!
=102	=102	=102	=102	=102	=102	=102	=102	=102
1G\	-lu-	.	1B-X\	-lu-	.	1d\	-lu-	.
2F\	-tis	.	2A\	-tis	.	2f\	-tis	.
=103	=103	=103	=103	=103	=103	=103	=103	=103
1.B-X\	me-	.	1.d\	me-	.	1.d\	me-	.
=104	=104	=104	=104	=104	=104	=104	=104	=104
1.A\	-ae	.	1.e\	-ae	.	1d\	.	.
.	.	.	.	.	.	2c#X\	-ae	.
=105	=105	=105	=105	=105	=105	=105	=105	=105
2A\	et	.	2e\	et	.	2c#X\	et	.
!	!	!	!	!	!LO:DY:t=forte	!	!	!
2A\	e-	.	2e\	e-	f	2c#\	e-	.
2D\	-xul-	.	2f\	-xul-	.	2d\	-xul-	.
=106	=106	=106	=106	=106	=106	=106	=106	=106
1A\	-ta-	.	1e\	-ta-	.	1c#X\	ta-	.
2A\	-bit	.	2e\	-bit	.	2c#\	-bit	.
=107	=107	=107	=107	=107	=107	=107	=107	=107
!	!	!	!	!	!LO:DY:t=piano	!	!	!
1D\	lin-	.	1f\	lin-	p	1d\	lin-	.
2C/	-gua	.	2e\	-gua	.	2e\	-gua	.
!	!	!	!	!	!	!LO:LB:g=original	!	!
=108	=108	=108	=108	=108	=108	=108	=108	=108
1F\	me-	.	1f\	me-	.	1A\	me-	.
2F\	-a	.	2f\	-a	f	2A\	-a	.
=109	=109	=109	=109	=109	=109	=109	=109	=109
2B-X\	ju-	.	2d\	ju-	.	2d\	Ju-	.
4F#X\	-sti-	.	4A\	-sti-	.	4d\	-sti-	.
8F#\	-ti-	.	8A\	-ti-	.	8d\	-ti-	.
8F#\	-am	.	8A\	-am	.	8d\	-am	.
2G\	tu-	.	2B-X\	.	.	2d\	tu-	.
!LO:LB:g=original	!	!	!	!	!	!	!	!
=110	=110	=110	=110	=110	=110	=110	=110	=110
2G\	.	.	2B-X\	tu-	.	2d\	.	.
1A\	.	.	1A\	.	.	2c#X\	.	.
.	.	.	.	.	.	2d\	.	.
=111	=111	=111	=111	=111	=111	=111	=111	=111
1.A\	.	.	1.A\	-am	.	1d\	.	.
.	.	.	.	.	.	2c#X\	.	.
=112	=112	=112	=112	=112	=112	=112	=112	=112
00D;\	-am	.	00A;\	.	.	00d;\	-am	.
!	!	!	!LO:PB:g=original	!	!	!	!	!
=113||	=113||	=113||	=113||	=113||	=113||	=113||	=113||	=113||
*M3/2	*	*	*M3/2	*	*	*M3/2	*	*
2.A\	Quo-	.	2.e\	Quo-	.	2.c#X\	Quo-	.
4A\	-ni-	.	4e\	-ni-	.	4c#\	-ni-	.
2A\	-am	.	2e\	-am	.	2c#\	-am	.
=114	=114	=114	=114	=114	=114	=114	=114	=114
2F\	si	.	2f\	si	.	2d\	si	.
2G\	vo-	.	2e\	vo-	.	2d\	vo-	.
2A\	-lu-	.	2e\	-lu-	.	2c#X\	-lu-	.
=115	=115	=115	=115	=115	=115	=115	=115	=115
1D\	-iſ-	.	1f\	-iſ-	.	1d\	-iſ-	.
2D/	-ses	.	2f\	-ses	.	2d\	-ses	.
!	!	!	!	!	!	!LO:LB:g=original	!	!
=116	=116	=116	=116	=116	=116	=116	=116	=116
2r	.	.	2r	.	.	2r	.	.
2d\	Sa-	.	2d\	Sa-	.	2f\	Sa-	.
2d\	-cri-	.	2B\	-cri-	.	2f\	-cri-	.
=117	=117	=117	=117	=117	=117	=117	=117	=117
2.c\	-fi-	.	2.c\	-fi-	.	2.e\	-fi-	.
4c\	-ci-	.	4c\	-ci-	.	4e\	-ci-	.
2c\	-um	.	2c\	-um	.	2e\	-um	.
=118	=118	=118	=118	=118	=118	=118	=118	=118
2A\	de-	.	2c\	de-	.	2f\	de-	.
2B-X\	-diſ-	.	2d\	-diſ-	.	2d\	-diſ-	.
2F\	-sem	.	2c\	-sem	.	2f\	-sem	.
!LO:LB:g=original	!	!	!	!	!	!	!	!
=119	=119	=119	=119	=119	=119	=119	=119	=119
2.c\	u-	.	2.c\	u-	.	2.e\	u-	.
4c\	-ti-	.	4c\	-ti-	.	4e\	-ti-	.
2c\	-que	.	2c\	-que	.	2e\	-que	.
=120	=120	=120	=120	=120	=120	=120	=120	=120
2r	.	.	2r	.	.	2r	.	.
2C/	ho-	.	2e\	ho-	p	2c\	ho-	p
2C/	-lo-	.	2e\	-lo-	.	2c\	-lo-	.
!	!	!	!LO:LB:g=original	!	!	!	!	!
=121	=121	=121	=121	=121	=121	=121	=121	=121
1C#X/	-caus-	.	1e\	-cauſ-	.	1A\	-cau-	.
2C#/	-tis	.	2e\	-tis	.	2A\	-stis	.
=122	=122	=122	=122	=122	=122	=122	=122	=122
1D\	non	.	1d\	n(on)	.	1A\	non	.
2r	.	.	2r	.	.	2r	.	.
=123	=123	=123	=123	=123	=123	=123	=123	=123
1G#X\	non	.	1e\	non	f	1B\	non	.
2r	.	.	2r	.	.	2r	.	.
=124	=124	=124	=124	=124	=124	=124	=124	=124
2A\	n(on)	.	2e\	n(on)	.	2c#X\	non	.
2B-X\	de-	.	2d\	de-	.	2d\	de-	.
2G\	-le-	.	2g\	-le-	.	2d\	-le-	.
=125	=125	=125	=125	=125	=125	=125	=125	=125
1A\	-cta-	.	1e\	-cta-	.	1d\	-cta-	.
2A\	-be-	.	2e\	-be-	.	2c#X\	-be-	.
=126	=126	=126	=126	=126	=126	=126	=126	=126
!	!	!	!	!	!	!LO:TX:b:t=Vertatur	!	!
00D;\	-ris	.	00d;\	-ris.	.	00d;\	-ris	.
!LO:LB:g=original	!	!	!	!	!	!LO:PB:g=original	!	!
=127||	=127||	=127||	=127||	=127||	=127||	=127||	=127||	=127||
*M3/2	*	*	*M3/2	*	*	*M3/2	*	*
2r	.	.	2r	.	.	2r	.	.
2r	.	.	2r	.	.	2r	.	.
2D\	Be-	.	2A\	Be-	.	2d\	Be-	.
=128	=128	=128	=128	=128	=128	=128	=128	=128
2.A\	-ni-	.	2.A\	-ni-	.	2.c#X\	-ni-	.
4A\	-gne	.	4A\	-gne	.	4c#\	-gne	.
2B-X\	fac	.	2G/	fac	.	2d\	fac	.
=129	=129	=129	=129	=129	=129	=129	=129	=129
2.A\	Do-	.	2.A\	Do-	.	2.c#X\	D(o-	.
4A\	-mi-	.	4A\	-mi-	.	4c#\	-mi)-	.
2A\	-ne	.	2A\	-ne	.	2c#\	-nem	.
!	!	!	!LO:LB:g=original	!	!	!	!	!
=130	=130	=130	=130	=130	=130	=130	=130	=130
2r	.	.	2r	.	.	2r	.	.
2F\	in	.	2A\	in	.	2f\	in	.
2.c\	bo-	.	2c\	bo-	.	[y2e\	bo-	.
=131	=131	=131	=131	=131	=131	=131	=131	=131
!	!	!	!	!	!	!LO:N:xstem:cue	!	!
.	.	.	4c\	-na	.	4e\]	.	.
4F\	-na	.	4A\	.	.	4f\	-na	.
2G\	vo-	.	2B-X\	vo-	.	2d\	vo-	.
2A\	-lun-	.	2A\	-lun-	.	2c#X\	-lun-	.
=132	=132	=132	=132	=132	=132	=132	=132	=132
1D\	-ta-	.	1A\	-ta-	.	1d\	-ta-	.
2D/	-te	.	2A\	-te	.	2d\	-te	.
=133	=133	=133	=133	=133	=133	=133	=133	=133
2A\	tu-	.	2A\	tu-	.	2c\	tu-	.
*custos:C	*	*	*	*	*	*	*	*
1G\	-a	.	1Bn\	-a	.	1d\	-a	.
!LO:PB:g=original	!	!	!	!	!	!	!	!
=134	=134	=134	=134	=134	=134	=134	=134	=134
!	!	!LO:DY:a:t=piano	!	!	!	!	!	!
1.C/	Si-	p	1.c\	si-	.	1.e\	Si-	.
=135	=135	=135	=135	=135	=135	=135	=135	=135
2C/	.	.	2c\	.	.	2e\	.	.
2F\	-on	.	2A\	-on	.	2c\	-on	.
2r	.	.	2r	.	.	2r	.	.
=136	=136	=136	=136	=136	=136	=136	=136	=136
!	!	!LO:DY:a:t=forte	!	!	!LO:DY:t=for&colon;	!	!	!
1G\	ut	f	1B\:yy	ut	f	1d\	ut	.
2C/	ae-	.	2c\	ae-	.	2e\	ae-	.
=137	=137	=137	=137	=137	=137	=137	=137	=137
2F\	-di-	.	2A\	-di-	.	2c\	-di-	.
2E\	-fi-	.	2c\	-fi-	.	2c\	-fi-	.
2F\	-cen-	.	2A\	-cen-	.	2c\	-cen-	.
!	!	!	!	!	!	!LO:LB:g=original	!	!
=138	=138	=138	=138	=138	=138	=138	=138	=138
2F\	.	.	2A\	-tur,	.	2c\	-tur	.
2C,</	-tur,	.	2c,<\	.	.	2e\	.	.
2D/	mu-	.	2A\	mu-	.	2d\	mu-	.
=139	=139	=139	=139	=139	=139	=139	=139	=139
2C/	-ri	.	2c\	-ri	.	2e\	-ri	.
1F\	tu-	.	1c\	tu-	.	1f\	tu-	.
!	!	!	!LO:LB:g=original	!	!	!	!	!
=140	=140	=140	=140	=140	=140	=140	=140	=140
2F,<\	-i	.	2c\	-i	p	2f\	-i	.
2B-X\	Je-	.	2d\	J-	.	2d\	Je-	.
2F#X\	-ru-	.	2A\	.	.	2d\	.	.
=141	=141	=141	=141	=141	=141	=141	=141	=141
1G\	.	.	1B-X\	-ru-	.	1d\	.	.
2A\	.	.	2A/	.	.	2c#X\	.	.
=142	=142	=142	=142	=142	=142	=142	=142	=142
1A\	.	.	1A\	.	.	1d\	-ru-	.
2A\	-sa-	.	2A/	-sa-	.	2c#X\	-sa-	.
=143	=143	=143	=143	=143	=143	=143	=143	=143
00D\	-lem.	.	00A;\	-lem.	.	00d;\	-lem	.
==	==	==	==	==	==	==	==	==
*-	*-	*-	*-	*-	*-	*-	*-	*-
!!!system-decoration: [(s1,s2,s3)]
!!!RDF**kern: > = above
!!!RDF**kern: < = below
!!!RDF**dynam: p = "pia:"
!!!RDF**dynam: f = "fort:"
!!!EED: Leszek Kubiak
!!!EST: 2021-02-24
!!!ENC: Marcin Jachim
!!!END: 2021-02-06
